X: 1086
T: Going to Donnybrook
R:double jig
N:"collected by Early"
B:O'Neill's 1086
Z:Transcribed by henrik.norbeck@mailbox.swipnet.se
M:6/8
L:1/8
K:G
E|"S"DGG BGG|AGG GBd|efg dBG|AGA BGE|
DGG BGG|AGG GBd|efg dBG|AGG G2:|
f|gfg efg|edB def|gfg eag|fdd d2f|
gfg efg|edB def|1 gfe dBA|BGG G2:|
[2 gba gfe|dBA BGE"S"||


